app/assets/images/icons/vote.svg

<svg width="39" height="35" viewBox="0 0 39 35" fill="none" xmlns="http://www.w3.org/2000/svg">
<path fill-rule="evenodd" clip-rule="evenodd" d="M19.5 0.625C19.9973 0.625 20.4742 0.822544 20.8258 1.17417C21.1775 1.52581 21.375 2.00272 21.375 2.5V4.375H22.8075C23.3894 4.37504 23.9633 4.51049 24.4837 4.77063L27.4425 6.25H34.5C34.9973 6.25 35.4742 6.44754 35.8258 6.79918C36.1775 7.15081 36.375 7.62772 36.375 8.125C36.375 8.62228 36.1775 9.09919 35.8258 9.45082C35.4742 9.80246 34.9973 10 34.5 10H33.7837L38.0512 18.5369C38.1825 18.7975 38.25 19.0844 38.25 19.375C38.25 21.3641 37.4598 23.2718 36.0533 24.6783C34.6468 26.0848 32.7391 26.875 30.75 26.875C28.7609 26.875 26.8532 26.0848 25.4467 24.6783C24.0402 23.2718 23.25 21.3641 23.25 19.375C23.25 19.0844 23.3175 18.7975 23.4487 18.5369L27.7162 10H27.4425C26.8606 9.99996 26.2867 9.86451 25.7663 9.60437L22.8075 8.125H21.375V30.625H27C27.4973 30.625 27.9742 30.8225 28.3258 31.1742C28.6775 31.5258 28.875 32.0027 28.875 32.5C28.875 32.9973 28.6775 33.4742 28.3258 33.8258C27.9742 34.1775 27.4973 34.375 27 34.375H12C11.5027 34.375 11.0258 34.1775 10.6742 33.8258C10.3225 33.4742 10.125 32.9973 10.125 32.5C10.125 32.0027 10.3225 31.5258 10.6742 31.1742C11.0258 30.8225 11.5027 30.625 12 30.625H17.625V8.125H16.1925L13.2338 9.60437C12.7133 9.86451 12.1394 9.99996 11.5575 10H11.2838L15.5513 18.5369C15.6816 18.797 15.7497 19.084 15.75 19.375C15.75 21.3641 14.9598 23.2718 13.5533 24.6783C12.1468 26.0848 10.2391 26.875 8.25 26.875C6.26088 26.875 4.35322 26.0848 2.9467 24.6783C1.54018 23.2718 0.75 21.3641 0.75 19.375C0.750311 19.084 0.818356 18.797 0.94875 18.5369L5.21625 10H4.5C4.00272 10 3.52581 9.80246 3.17417 9.45082C2.82254 9.09919 2.625 8.62228 2.625 8.125C2.625 7.62772 2.82254 7.15081 3.17417 6.79918C3.52581 6.44754 4.00272 6.25 4.5 6.25H11.5575L14.5162 4.77063C15.0367 4.51049 15.6106 4.37504 16.1925 4.375H17.625V2.5C17.625 2.00272 17.8225 1.52581 18.1742 1.17417C18.5258 0.822544 19.0027 0.625 19.5 0.625Z" fill="#4A2D24"/>
</svg>

<svg xmlns="http://www.w3.org/2000/svg" width="39" height="35" fill="none"><path fill="#4A2D24" fill-rule="evenodd" d="M19.5.625A1.875 1.875 0 0 1 21.375 2.5v1.875h1.433a3.75 3.75 0 0 1 1.676.396l2.958 1.479H34.5a1.875 1.875 0 1 1 0 3.75h-.716l4.267 8.537c.131.26.199.547.199.838a7.5 7.5 0 0 1-15 0c0-.29.067-.578.199-.838L27.716 10h-.274a3.75 3.75 0 0 1-1.676-.396l-2.958-1.479h-1.433v22.5H27a1.875 1.875 0 1 1 0 3.75H12a1.875 1.875 0 1 1 0-3.75h5.625v-22.5h-1.433l-2.958 1.48a3.75 3.75 0 0 1-1.677.395h-.273l4.267 8.537c.13.26.199.547.199.838a7.5 7.5 0 0 1-15 0c0-.291.068-.578.199-.838L5.216 10H4.5a1.875 1.875 0 1 1 0-3.75h7.057l2.96-1.48a3.75 3.75 0 0 1 1.675-.395h1.433V2.5A1.875 1.875 0 0 1 19.5.625" clip-rule="evenodd"/></svg>
